!!!COM: Bach, Johann Sebastian
!!!OPR: Joh. Seb. Bachs vierstimmige Choralgesänge
!!!XEN: Four-part Chorales
!!!OTL: 115. In dulci jubilo
!!!SCT: BWV 368
!!!SCA: Thematisch-systematisches Verzeichnis der musikalischen Werke Johann Sebastian Bach: Bach-Werke-Verzeichnis (Schmieder)
!!!YOR: Bach Gesellschaft Edition xxxix
!!!ENC: Steven Rasmussen
!!!CDT: 1685/3//-1750/7/28/
!!!OCY: Deutschland
!!!YEC: Copyright (c) 1994, 2000 Center for Computer Assisted Research in the Humanities
!!!YEM: Rights to all derivative editions reserved
!!!YEN: United States of America
**kern	**silbe	**kern	**silbe	**kern	**silbe	**kern	**silbe
*I:[SOPRANO]	*I:[SOPRANO]	*I:[ALTO]	*I:[ALTO]	*I:[TENORE]	*I:[TENORE]	*I:[BASSO]	*I:[BASSO]
*clefG2	*	*clefG2	*	*clefGv2	*	*clefF4	*
*k[b-]	*	*k[b-]	*	*k[b-]	*	*k[b-]	*
*F:	*	*F:	*	*F:	*	*F:	*
*M3/4	*	*M3/4	*	*M3/4	*	*M3/4	*
4f/	In	4c/	.	4A/	.	4F\	.
=1	=1	=1	=1	=1	=1	=1	=1
2f/	dul-	2d/	.	2A/	.	4D\	.
.	.	.	.	.	.	4C/	.
4f/	-ci	4d/	.	4B-\	.	4BB-/	.
=2	=2	=2	=2	=2	=2	=2	=2
2a/	ju-	2e/	.	2c\	.	4AA/	ju-
.	.	.	.	.	.	8BB-/L	-bi-
.	.	.	.	.	.	8AA/	.
4b-\	-bi-	4e/	.	4B-\	.	8GG/	.
.	.	.	.	.	.	8AA/J	.
=3	=3	=3	=3	=3	=3	=3	=3
2cc\	-lo	[2.f/	.	2A/	.	8FF/L	-lo
.	.	.	.	.	.	8F/	.
.	.	.	.	.	.	8E-/	.
.	.	.	.	.	.	8D/	.
4dd\	.	.	.	4B-\	.	8C/	.
.	.	.	.	.	.	8BB-/J	.
=4	=4	=4	=4	=4	=4	=4	=4
2.cc;\	.	2.f;/]	.	2.A;/	.	2.F;\	.
=5	=5	=5	=5	=5	=5	=5	=5
2f/	sin-	4f/	.	2A/	.	4D\	.
.	.	4e/	.	.	.	4C/	.
4f/	-get	4d/	.	4B-\	.	4BB-/	.
=6	=6	=6	=6	=6	=6	=6	=6
2a/	und	2c/	.	4A/	.	4F\	.
.	.	.	.	4G/	.	4E\	.
4b-\	seid	4d/	.	4F/	.	4D\	.
=7	=7	=7	=7	=7	=7	=7	=7
2cc\	froh,	4c/	.	4G/	.	4E\	.
.	.	4e/	.	4c\	.	4C/	.
4dd\	.	4g/	.	4Bn\	.	4GG/	.
=8	=8	=8	=8	=8	=8	=8	=8
2.cc;\	.	2.e;/	.	2.G;/	.	2.C;/	.
=9	=9	=9	=9	=9	=9	=9	=9
2cc\	un-	2f/	.	2A/	.	2F\	.
4dd\	-sers	4f/	.	4B-\	.	4B-\	.
=10	=10	=10	=10	=10	=10	=10	=10
2cc\	Her-	4e/	.	4c\	.	4B-\	.
.	.	4f/	.	4d\	.	4A\	.
4b-\	-zens	4g/	.	4e\	.	4G\	.
=11	=11	=11	=11	=11	=11	=11	=11
4.a/	Won-	4c#/	.	4A/	.	4G\	.
.	.	4d/	.	4Bn\	.	4F\	.
8b-/L	.	.	.	.	.	.	.
8a/	.	4e/	.	4c#\	.	4E\	.
8g/J	.	.	.	.	.	.	.
=12	=12	=12	=12	=12	=12	=12	=12
2f;/	-ne	2A;/	.	2d;\	.	2D;\	.
4f/	liegt	[4f/	liegt	4c\	liegt	4AA/	.
=13	=13	=13	=13	=13	=13	=13	=13
2g/	in	4f/]	.	4d\	in	4BB-/	.
.	.	8e/L	in	4B-\	.	4GG/	.
.	.	8d/J	.	.	.	.	.
4g/	prae-	4e/	prae-	4c\	prae-	4C/	prae-
=14	=14	=14	=14	=14	=14	=14	=14
2a/	-se-	2f/	-se-	[2.c\	-se-	8FF/L	-se-
.	.	.	.	.	.	8GG/	.
.	.	.	.	.	.	8AA/	.
.	.	.	.	.	.	8BB-/	.
4g/	-pi-	4e/	-pi-	.	.	8C/	.
.	.	.	.	.	.	8BB-/J	.
=15	=15	=15	=15	=15	=15	=15	=15
2f/	-o,	4.f/	-o,	4c\]	.	4AA/	.
.	.	.	.	4A/	.	4FF/	.
.	.	8g/L	.	.	.	.	.
4g/	.	8f/	.	4c\	-pi-	4CC/	-pi-
.	.	8e/J	.	.	.	.	.
=16	=16	=16	=16	=16	=16	=16	=16
2.a;/	.	2.f;/	.	2.c;\	-o,	2.FF;/	-o,
=17	=17	=17	=17	=17	=17	=17	=17
2cc\	leuch-	2f/	.	2A/	.	4F\	.
.	.	.	.	.	.	4E\	.
4dd\	-tet	4f/	.	4B-\	.	4D\	.
=18	=18	=18	=18	=18	=18	=18	=18
2cc\	als	4g/	.	2G/	.	4E\	.
.	.	4f/	.	.	.	4D\	.
4b-\	die	4g/	.	4e\	.	4C/	.
=19	=19	=19	=19	=19	=19	=19	=19
4.a/	Son-	4g/	.	4e\	.	8F\L	.
.	.	.	.	.	.	8G\J	.
.	.	4f/	.	4d\	.	4A\	.
8b-/L	.	.	.	.	.	.	.
8a/	.	4e/	.	4c#\	.	4AA/	.
8g/J	.	.	.	.	.	.	.
=20	=20	=20	=20	=20	=20	=20	=20
2f;/	-ne	2d;/	.	2A;/	.	2D;\	.
4f/	ma-	[4f/	ma-	4c\	ma-	4AA/	.
=21	=21	=21	=21	=21	=21	=21	=21
2g/	-tris	4f/]	.	4d\	-tris	4BB-/	.
.	.	8e/L	-tris	4B-\	.	4GG/	.
.	.	8d/J	.	.	.	.	.
4g/	in	4e/	in	4c\	in	4C/	.
=22	=22	=22	=22	=22	=22	=22	=22
2a/	gre-	2f/	gre-	2c\	gre-	8FF/L	gre-
.	.	.	.	.	.	8GG/	.
.	.	.	.	.	.	8AA/	.
.	.	.	.	.	.	8BB-/	.
4g/	-mi-	[4e/	.	4c\	-mi-	8C/	.
.	.	.	.	.	.	8AA/J	.
=23	=23	=23	=23	=23	=23	=23	=23
2f/	-o,	4e/]	.	2A/	-o,	4D\	.
.	.	4A/	.	.	.	4C/	.
4g/	.	4d/	-mi-	4B-\	.	4BB-/	-mi-
=24	=24	=24	=24	=24	=24	=24	=24
2.a;/	.	2.c#;/	-o,	2.E;/	.	2.AA;/	-o,
=25	=25	=25	=25	=25	=25	=25	=25
2d/	Al-	2d/	Al-	8r	.	4BB-/	Al-
.	.	.	.	8F/L	Al-	.	.
.	.	.	.	8G/	.	4AA/	.
.	.	.	.	8A/	.	.	.
4d/	-pha	[4d/	-pha	8B-/	.	4GG/	-pha
.	.	.	.	8A/J	.	.	.
=26	=26	=26	=26	=26	=26	=26	=26
2e/	es	4d/]	.	4G/	.	4C/	es
.	.	8c/L	es	8A\L	-pha	4BB-/	.
.	.	8d/J	.	8B-\	.	.	.
4e/	et	[4e/	et	8c\	.	4AA/	et
.	.	.	.	8B-\J	.	.	.
=27	=27	=27	=27	=27	=27	=27	=27
8f/L	O,	4e/]	.	4.A/	es	8D\L	O,
8e/	.	.	.	.	.	8C\	.
8f/	.	2d/	.	.	.	8D\	.
8g/	.	.	.	8G/	.	8E\	.
8a/	.	.	.	4F/	et	8F\	.
8b-/J	.	.	.	.	.	8D\J	.
=28	=28	=28	=28	=28	=28	=28	=28
2.cc;\	.	2.c;/	O,	2.G;/	O,	2.E;\	.
=29	=29	=29	=29	=29	=29	=29	=29
2a/	Al-	4c/	.	4A/	.	4FF/	.
.	.	8f/L	.	4B-\	.	4GG/	.
.	.	8e/J	.	.	.	.	.
4a/	-pha	4f/	.	4c\	.	4AA/	.
=30	=30	=30	=30	=30	=30	=30	=30
2g/	es	2f/	.	4d\	.	4BB-/	.
.	.	.	.	4B-\	.	4GG/	.
4g/	et	4e/	.	4c\	.	4C/	.
=31	=31	=31	=31	=31	=31	=31	=31
[2.f/	O.	8f/L	.	4c\	.	4AA/	.
.	.	8e-/	.	.	.	.	.
.	.	8d/	.	8B-/L	.	2BB-/	.
.	.	8c/	.	8A/	.	.	.
.	.	8d/	.	8B-/	.	.	.
.	.	8B-/J	.	8G/J	.	.	.
=32	=32	=32	=32	=32	=32	=32	=32
2.f;/]	.	2.c;/	.	2.A;/	.	2.FF;/	.
==|!	==|!	==|!	==|!	==|!	==|!	==|!	==|!
*-	*-	*-	*-	*-	*-	*-	*-
!!!RWG: Key is interpreted using the Humdrum key tool.
!!!END: 1994/07/13/
!!!KEY: 3015311762
!!!EMD: Converted from MuseData to Humdrum Dec 19, 2000, by Andreas Kornstaedt using muse2kern.
